X:4009
T:The Royal Deeside Railway
P:On the Fiddle
C:Joseph Hornsby
R:Reel (8x32)
B:RSCDS 40-9
Z:Anselm Lingnau <anselm@strathspey.org>
M:4/4
L:1/8
K:A
|:cd|"A"e2 ef "A/C#"ecBA|"A"ceef "A/C#"e2 cB|\
     "F#m"cffg "F#m/C#"fecB|"F#m"cffg f2 "E7/G#"ed|
     "A"ceef "A/E"ecBA|"A"ceef "A7/C#"e2 cA|"D"defd "A"caec|"E7"dBGE A2:|
|:cB|"A"AccB "A/C#"A2 cd|"A"ceed c2 BA|"E7"GBBA G2 gf|feed "A"c2 cd|
     "A"eccB "F#m"A2 ag|"D"fdAf "E7"e2 fg|"A"aecA "E7"fdBG|"A"A2 cB A2:|
